communes/6422.svg

<?xml version="1.0" encoding="UTF-8" standalone="no"?>
<svg
   xmlns:i="http://ns.adobe.com/AdobeIllustrator/10.0/"
   xmlns:dc="http://purl.org/dc/elements/1.1/"
   xmlns:cc="http://web.resource.org/cc/"
   xmlns:rdf="http://www.w3.org/1999/02/22-rdf-syntax-ns#"
   xmlns:svg="http://www.w3.org/2000/svg"
   xmlns="http://www.w3.org/2000/svg"
   xmlns:xlink="http://www.w3.org/1999/xlink"
   xmlns:sodipodi="http://inkscape.sourceforge.net/DTD/sodipodi-0.dtd"
   xmlns:inkscape="http://www.inkscape.org/namespaces/inkscape"
   height="763"
   width="603"
   version="1.0"
   id="svg20"
   sodipodi:version="0.32"
   inkscape:version="0.43"
   sodipodi:docname="Les Planchettes-coat_of_arms.svg"
   sodipodi:docbase="C:\Documents and Settings\Chris Nendick\My Documents\My Pictures\Inkscape work\Blazons">
  <metadata
     id="metadata31">
    <rdf:RDF>
      <cc:Work
         rdf:about="">
        <dc:format>image/svg+xml</dc:format>
        <dc:type
           rdf:resource="http://purl.org/dc/dcmitype/StillImage" />
        <dc:date />
        <dc:creator>
          <cc:Agent>
            <dc:title />
          </cc:Agent>
        </dc:creator>
        <cc:license
           rdf:resource="http://creativecommons.org/licenses/GPL/2.0/" />
        <dc:coverage />
        <dc:description />
        <dc:subject>
          <rdf:Bag />
        </dc:subject>
        <dc:language />
        <dc:title />
      </cc:Work>
      <cc:License
         rdf:about="http://creativecommons.org/licenses/GPL/2.0/">
        <cc:permits
           rdf:resource="http://web.resource.org/cc/Reproduction" />
        <cc:permits
           rdf:resource="http://web.resource.org/cc/Distribution" />
        <cc:requires
           rdf:resource="http://web.resource.org/cc/Notice" />
        <cc:permits
           rdf:resource="http://web.resource.org/cc/DerivativeWorks" />
        <cc:requires
           rdf:resource="http://web.resource.org/cc/ShareAlike" />
        <cc:requires
           rdf:resource="http://web.resource.org/cc/SourceCode" />
      </cc:License>
    </rdf:RDF>
  </metadata>
  <defs
     id="defs29">
    <linearGradient
       id="linearGradient2893">
      <stop
         style="stop-color:#ffffff;stop-opacity:0.3137255;"
         offset="0"
         id="stop2895" />
      <stop
         id="stop2897"
         offset="0.19"
         style="stop-color:#ffffff;stop-opacity:0.25098041;" />
      <stop
         style="stop-color:#6b6b6b;stop-opacity:0.1254902;"
         offset="0.60000002"
         id="stop2901" />
      <stop
         style="stop-color:#000000;stop-opacity:0.1254902;"
         offset="1"
         id="stop2899" />
    </linearGradient>
    <linearGradient
       id="linearGradient2955">
      <stop
         style="stop-color:white;stop-opacity:0;"
         offset="0"
         id="stop2965" />
      <stop
         style="stop-color:black;stop-opacity:0.64583331;"
         offset="1"
         id="stop2959" />
    </linearGradient>
    <radialGradient
       inkscape:collect="always"
       xlink:href="#linearGradient2893"
       id="radialGradient3236"
       gradientUnits="userSpaceOnUse"
       gradientTransform="matrix(1.215027,1.531577e-24,1.464684e-23,1.266667,-839.1924,-490.4894)"
       cx="858.04236"
       cy="579.93323"
       fx="858.04236"
       fy="579.93323"
       r="300" />
    <foreignObject
       requiredExtensions="http://ns.adobe.com/AdobeIllustrator/10.0/"
       x="0"
       y="0"
       width="1"
       height="1"
       id="foreignObject3067">
      <i:pgfRef
         xlink:href="#adobe_illustrator_pgf" />
    </foreignObject>
    <foreignObject
       requiredExtensions="http://ns.adobe.com/AdobeIllustrator/10.0/"
       x="0"
       y="0"
       width="1"
       height="1"
       id="foreignObject2183">
      <i:pgfRef
         xlink:href="#adobe_illustrator_pgf" />
    </foreignObject>
    <foreignObject
       requiredExtensions="http://ns.adobe.com/AdobeIllustrator/10.0/"
       x="0"
       y="0"
       width="1"
       height="1"
       id="foreignObject3850">
      <i:pgfRef
         xlink:href="#adobe_illustrator_pgf" />
    </foreignObject>
    <foreignObject
       id="foreignObject22445"
       height="1"
       width="1"
       y="0"
       x="0"
       requiredExtensions="http://ns.adobe.com/AdobeIllustrator/10.0/">
      <i:pgfRef
         xlink:href="#adobe_illustrator_pgf" />
    </foreignObject>
    <foreignObject
       id="foreignObject22443"
       height="1"
       width="1"
       y="0"
       x="0"
       requiredExtensions="http://ns.adobe.com/AdobeIllustrator/10.0/">
      <i:pgfRef
         xlink:href="#adobe_illustrator_pgf" />
    </foreignObject>
    <foreignObject
       id="foreignObject22441"
       height="1"
       width="1"
       y="0"
       x="0"
       requiredExtensions="http://ns.adobe.com/AdobeIllustrator/10.0/">
      <i:pgfRef
         xlink:href="#adobe_illustrator_pgf" />
    </foreignObject>
    <radialGradient
       r="300"
       fy="579.93323"
       fx="858.04236"
       cy="579.93323"
       cx="858.04236"
       gradientTransform="matrix(1.215027,1.531577e-24,1.464684e-23,1.266667,-839.1924,-490.4894)"
       gradientUnits="userSpaceOnUse"
       id="radialGradient22439"
       xlink:href="#linearGradient2893"
       inkscape:collect="always" />
    <linearGradient
       id="linearGradient22433">
      <stop
         id="stop22435"
         offset="0"
         style="stop-color:white;stop-opacity:0;" />
      <stop
         id="stop22437"
         offset="1"
         style="stop-color:black;stop-opacity:0.64583331;" />
    </linearGradient>
    <linearGradient
       id="linearGradient22423">
      <stop
         id="stop22425"
         offset="0"
         style="stop-color:#ffffff;stop-opacity:0.3137255;" />
      <stop
         style="stop-color:#ffffff;stop-opacity:0.25098041;"
         offset="0.19"
         id="stop22427" />
      <stop
         id="stop22429"
         offset="0.60000002"
         style="stop-color:#6b6b6b;stop-opacity:0.1254902;" />
      <stop
         id="stop22431"
         offset="1"
         style="stop-color:#000000;stop-opacity:0.1254902;" />
    </linearGradient>
    <foreignObject
       id="foreignObject25169"
       height="1"
       width="1"
       y="0"
       x="0"
       requiredExtensions="http://ns.adobe.com/AdobeIllustrator/10.0/">
      <i:pgfRef
         xlink:href="#adobe_illustrator_pgf" />
    </foreignObject>
    <foreignObject
       id="foreignObject25167"
       height="1"
       width="1"
       y="0"
       x="0"
       requiredExtensions="http://ns.adobe.com/AdobeIllustrator/10.0/">
      <i:pgfRef
         xlink:href="#adobe_illustrator_pgf" />
    </foreignObject>
    <foreignObject
       id="foreignObject25165"
       height="1"
       width="1"
       y="0"
       x="0"
       requiredExtensions="http://ns.adobe.com/AdobeIllustrator/10.0/">
      <i:pgfRef
         xlink:href="#adobe_illustrator_pgf" />
    </foreignObject>
    <radialGradient
       r="300"
       fy="579.93323"
       fx="858.04236"
       cy="579.93323"
       cx="858.04236"
       gradientTransform="matrix(1.215027,1.531577e-24,1.464684e-23,1.266667,-839.1924,-490.4894)"
       gradientUnits="userSpaceOnUse"
       id="radialGradient25163"
       xlink:href="#linearGradient2893"
       inkscape:collect="always" />
    <linearGradient
       id="linearGradient25157">
      <stop
         id="stop25159"
         offset="0"
         style="stop-color:white;stop-opacity:0;" />
      <stop
         id="stop25161"
         offset="1"
         style="stop-color:black;stop-opacity:0.64583331;" />
    </linearGradient>
    <linearGradient
       id="linearGradient25147">
      <stop
         id="stop25149"
         offset="0"
         style="stop-color:#ffffff;stop-opacity:0.3137255;" />
      <stop
         style="stop-color:#ffffff;stop-opacity:0.25098041;"
         offset="0.19"
         id="stop25151" />
      <stop
         id="stop25153"
         offset="0.60000002"
         style="stop-color:#6b6b6b;stop-opacity:0.1254902;" />
      <stop
         id="stop25155"
         offset="1"
         style="stop-color:#000000;stop-opacity:0.1254902;" />
    </linearGradient>
  </defs>
  <sodipodi:namedview
     inkscape:window-height="808"
     inkscape:window-width="1152"
     inkscape:pageshadow="2"
     inkscape:pageopacity="0.0"
     guidetolerance="10.0"
     gridtolerance="10.0"
     objecttolerance="10.0"
     borderopacity="1.0"
     bordercolor="#666666"
     pagecolor="#ffffff"
     id="base"
     inkscape:zoom="0.83977464"
     inkscape:cx="301.50015"
     inkscape:cy="381.50001"
     inkscape:window-x="-4"
     inkscape:window-y="-4"
     inkscape:current-layer="layer1"
     showgrid="false"
     showguides="true"
     inkscape:guide-bbox="true" />
  <desc
     id="desc22">Coat of Arms of Canton of Freiburg (Fribourg)</desc>
  <g
     inkscape:groupmode="layer"
     id="layer1"
     inkscape:label="Fond écu"
     style="opacity:1">
    <path
       id="path1337"
       d="M 1.5001513,1.49998 L 1.5001513,460.3679 C 1.5001513,626.6785 135.81471,761.5 301.50014,761.5 C 467.18558,761.5 601.50015,626.6785 601.50015,460.3679 L 601.50015,1.49998 L 1.5001513,1.49998 z "
       style="fill:#e20909;fill-opacity:1;stroke:#000000;stroke-opacity:1;stroke-width:3.3;stroke-miterlimit:4;stroke-dasharray:none" />
    <path
       style="fill:none;fill-opacity:1;stroke:#000000;stroke-opacity:1"
       d="M 1.5001513,1.49998 L 1.5001513,460.3679 C 1.5001513,626.6785 135.81471,761.5 301.50014,761.5 C 467.18558,761.5 601.50015,626.6785 601.50015,460.3679 L 601.50015,1.49998 L 1.5001513,1.49998 z "
       id="path5889" />
    <path
       style="fill:none;fill-opacity:1;stroke:#000000;stroke-opacity:1;stroke-width:3.3;stroke-miterlimit:4;stroke-dasharray:none"
       d="M 1.5001513,1.49998 L 1.5001513,460.3679 C 1.5001513,626.6785 135.81471,761.5 301.50014,761.5 C 467.18558,761.5 601.50015,626.6785 601.50015,460.3679 L 601.50015,1.49998 L 1.5001513,1.49998 z "
       id="path18563" />
    <path
       id="path5000"
       d="M 1.5001513,1.49998 L 1.5001513,460.3679 C 1.5001513,626.6785 135.81471,761.5 301.50014,761.5 C 467.18558,761.5 601.50015,626.6785 601.50015,460.3679 L 601.50015,1.49998 L 1.5001513,1.49998 z "
       style="fill:none;fill-opacity:1;stroke:#000000;stroke-opacity:1;stroke-width:3.3;stroke-miterlimit:4;stroke-dasharray:none" />
    <path
       style="fill:#ffffff;fill-opacity:1;fill-rule:evenodd;stroke:#000000;stroke-width:3;stroke-linecap:butt;stroke-linejoin:miter;stroke-opacity:1;stroke-miterlimit:4;stroke-dasharray:none"
       d="M 302.65625,1.5 L 1.5,384.34375 L 1.5,460.375 C 1.5,461.02465 1.4959072,461.66382 1.5,462.3125 C 1.6606805,487.77925 4.974381,512.49979 11.0625,536.09375 L 301.5,164.34375 L 591.9375,536.09375 C 598.02562,512.49979 601.33932,487.77925 601.5,462.3125 C 601.50409,461.66382 601.5,461.02465 601.5,460.375 L 601.5,384.34375 L 302.65625,1.5 z "
       id="path2544" />
    <path
       style="fill:#ffffff;fill-opacity:1;fill-rule:evenodd;stroke:#000000;stroke-width:3;stroke-linecap:butt;stroke-linejoin:miter;stroke-opacity:1;stroke-miterlimit:4;stroke-dasharray:none"
       d="M 1.5 384.34375 L 1.5 460.375 C 1.5 626.68561 135.81457 761.5 301.5 761.5 C 467.18543 761.5 601.5 626.6856 601.5 460.375 L 601.5 384.34375 L 1.5 384.34375 z "
       id="path1391" />
  </g>
  <g
     inkscape:groupmode="layer"
     id="layer2"
     inkscape:label="Meubles"
     style="opacity:1">
    <g
       id="g25173"
       inkscape:label="Fond écu"
       transform="translate(581.6022,605.4773)" />
    <g
       id="g25188"
       inkscape:label="Reflet final"
       style="display:inline"
       transform="translate(581.6022,605.4773)" />
    <g
       id="g25190"
       inkscape:label="Contour final"
       style="display:inline"
       transform="translate(581.6022,605.4773)" />
    <path
       style="font-size:263.36953735px;font-style:normal;font-variant:normal;font-weight:normal;font-stretch:normal;text-align:start;line-height:125%;writing-mode:lr-tb;text-anchor:start;fill:#000000;fill-opacity:1;stroke:#000000;stroke-width:5.9000001;stroke-linecap:butt;stroke-linejoin:miter;stroke-miterlimit:4;stroke-dasharray:none;stroke-opacity:1;font-family:French Script MT;opacity:1"
       d="M 160.23465,597.52714 L 146.60322,604.85725 L 146.60322,500.04955 C 139.4874,505.02212 131.72864,508.4514 123.32691,510.33742 L 120.75494,505.57928 C 138.24429,500.26398 150.80405,489.46172 158.43427,473.17248 L 160.23465,474.45847 L 160.23465,597.52714 M 262.21318,535.79991 C 272.24379,540.77244 279.27383,545.57344 283.30332,550.20293 C 287.33265,554.74678 289.34736,560.14791 289.34745,566.40633 C 289.34736,576.86569 285.48941,585.65324 277.77359,592.769 C 270.14335,599.79905 260.24128,603.31407 248.06736,603.31407 C 236.66493,603.31407 227.40585,600.14198 220.2901,593.79779 C 213.17431,587.45361 209.61643,579.65198 209.61643,570.39288 C 209.61643,556.93295 217.76098,545.95923 234.05013,537.47169 C 226.3342,532.15635 221.23314,527.61255 218.74692,523.84026 C 216.3464,519.98238 215.14615,515.56717 215.14617,510.59462 C 215.14615,500.90697 218.96123,492.80528 226.59142,486.28952 C 234.30729,479.68826 243.73784,476.38757 254.88307,476.38744 C 264.31356,476.38757 272.02946,478.8738 278.03079,483.84615 C 284.03196,488.81873 287.03259,495.16291 287.03267,502.87871 C 287.03259,509.73739 285.23221,515.65291 281.63154,520.62529 C 278.03071,525.59784 271.55793,530.65604 262.21318,535.79991 M 256.16906,532.71355 C 269.71469,527.56968 276.48753,519.21079 276.48761,507.63686 C 276.48753,500.17825 274.0013,494.30559 269.0289,490.01887 C 264.1421,485.64664 257.49785,483.46047 249.09614,483.46036 C 241.80886,483.46047 236.0648,485.30371 231.86396,488.99009 C 227.74878,492.59095 225.69121,497.39195 225.69123,503.39311 C 225.69121,515.39571 235.85047,525.16918 256.16906,532.71355 M 239.83706,540.81524 C 227.40585,545.8735 221.19027,554.48959 221.19029,566.66352 C 221.19027,575.40824 224.10516,582.78121 229.93498,588.78245 C 235.76474,594.78371 243.26631,597.78434 252.4397,597.78434 C 260.24128,597.78434 266.58546,595.46957 271.47227,590.84003 C 276.35893,586.12476 278.8023,580.42357 278.80238,573.73644 C 278.8023,568.764 277.38772,564.43452 274.55863,560.748 C 271.81513,557.06155 265.51381,552.90354 255.65466,548.27395 L 239.83706,540.81524 M 352.61786,597.52714 L 338.98643,604.85725 L 338.98643,500.04955 C 331.87061,505.02212 324.11185,508.4514 315.71012,510.33742 L 313.13815,505.57928 C 330.6275,500.26398 343.18726,489.46172 350.81748,473.17248 L 352.61786,474.45847 L 352.61786,597.52714 M 482.24506,572.96485 C 480.4446,582.48115 476.15799,589.98271 469.38522,595.46957 C 462.6123,600.8707 455.58227,603.57126 448.29508,603.57127 C 440.92206,603.57126 434.40642,601.08503 428.74813,596.11256 C 425.49027,593.19767 422.18958,591.74022 418.84605,591.74021 C 412.24465,591.74022 408.2581,595.51244 406.8864,603.05687 L 403.28564,603.05687 C 403.71429,590.36851 408.17237,579.05186 416.65988,569.10689 C 425.23307,559.07626 433.24903,551.61756 440.70778,546.73077 C 448.16643,541.75836 453.52469,536.35723 456.78258,530.52737 C 460.04034,524.69765 461.66925,518.99646 461.66932,513.42378 C 461.66925,505.79371 459.09729,498.978 453.95341,492.97664 C 448.89516,486.97549 442.63671,483.97486 435.17805,483.97475 C 427.9765,483.97486 421.93238,486.28963 417.04567,490.91906 C 412.24465,495.46298 409.84414,501.29277 409.84416,508.40845 C 409.84414,513.55247 411.13013,517.71048 413.70211,520.88249 C 416.35979,524.05466 419.66048,525.64071 423.60419,525.64063 C 427.11918,525.64071 429.99121,524.48332 432.22028,522.16848 C 434.53501,519.85378 435.6924,517.19609 435.69244,514.19537 L 435.69244,511.8806 L 438.52161,510.85182 C 439.80754,513.08094 440.45053,515.78151 440.45058,518.95352 C 440.45053,524.26899 438.69303,528.51273 435.17805,531.68476 C 431.74872,534.77118 427.24778,536.31436 421.67521,536.3143 C 415.93113,536.31436 411.21586,534.21393 407.52939,530.01298 C 403.84289,525.81217 401.99965,520.36818 401.99966,513.68098 C 401.99965,503.3932 405.81473,494.69139 413.44492,487.5755 C 421.07506,480.45984 430.5056,476.90196 441.73657,476.90184 C 451.42425,476.90196 459.69741,480.03118 466.55606,486.28952 C 473.50029,492.46235 476.97245,499.92105 476.97253,508.66564 C 476.97245,523.06874 467.11324,536.74302 447.3949,549.68853 C 427.67644,562.63414 415.93113,575.32251 412.15893,587.75366 C 416.70272,584.23866 421.97525,582.48115 427.97654,582.48113 C 432.34884,582.48115 437.9643,583.63853 444.82293,585.95329 C 451.76718,588.18234 456.26812,589.29685 458.32576,589.29684 C 462.78377,589.29685 466.51312,588.0966 469.51382,585.69609 C 472.51437,583.20987 475.6436,578.45173 478.90151,571.42167 L 482.24506,572.96485"
       id="text4024" />
  </g>
  <g
     inkscape:groupmode="layer"
     id="layer3"
     inkscape:label="Reflet final"
     style="display:inline"
     sodipodi:insensitive="true">
    <path
       style="fill:url(#radialGradient3236);fill-opacity:1"
       d="M 1.5,1.5 L 1.5,460.3679 C 1.5,626.67854 135.81454,761.5 301.49993,761.5 C 467.1854,761.5 601.5,626.67854 601.5,460.3679 L 601.5,1.5 L 1.5,1.5 z "
       id="path2346" />
  </g>
  <g
     inkscape:groupmode="layer"
     id="layer4"
     inkscape:label="Contour final"
     style="display:inline"
     sodipodi:insensitive="true">
    <path
       style="fill:none;fill-opacity:1;stroke:#000000;stroke-width:3;stroke-miterlimit:4;stroke-dasharray:none;stroke-opacity:1"
       d="M 1.5,1.5 L 1.5,460.36794 C 1.5,626.67854 135.81454,761.5 301.49993,761.5 C 467.1854,761.5 601.5,626.67854 601.5,460.36794 L 601.5,1.5 L 1.5,1.5 z "
       id="path3239" />
  </g>
</svg>

<?xml version="1.0" encoding="UTF-8"?>
<svg sodipodi:docbase="C:\Documents and Settings\Chris Nendick\My Documents\My Pictures\Inkscape work\Blazons" sodipodi:docname="Les Planchettes-coat_of_arms.svg" sodipodi:version="0.32" version="1.0" viewBox="0 0 603 763" xmlns="http://www.w3.org/2000/svg" xmlns:cc="http://web.resource.org/cc/" xmlns:dc="http://purl.org/dc/elements/1.1/" xmlns:rdf="http://www.w3.org/1999/02/22-rdf-syntax-ns#" xmlns:sodipodi="http://inkscape.sourceforge.net/DTD/sodipodi-0.dtd" xmlns:xlink="http://www.w3.org/1999/xlink">
<metadata>
<rdf:RDF>
<cc:Work rdf:about="">
<dc:format>image/svg+xml</dc:format>
<dc:type rdf:resource="http://purl.org/dc/dcmitype/StillImage"/>
<dc:date/>
<dc:creator>
<cc:Agent>
<dc:title/>
</cc:Agent>
</dc:creator>
<cc:license rdf:resource="http://creativecommons.org/licenses/GPL/2.0/"/>
<dc:coverage/>
<dc:description/>
<dc:subject>
<rdf:Bag/>
</dc:subject>
<dc:language/>
<dc:title/>
</cc:Work>
<cc:License rdf:about="http://creativecommons.org/licenses/GPL/2.0/">
<cc:permits rdf:resource="http://web.resource.org/cc/Reproduction"/>
<cc:permits rdf:resource="http://web.resource.org/cc/Distribution"/>
<cc:requires rdf:resource="http://web.resource.org/cc/Notice"/>
<cc:permits rdf:resource="http://web.resource.org/cc/DerivativeWorks"/>
<cc:requires rdf:resource="http://web.resource.org/cc/ShareAlike"/>
<cc:requires rdf:resource="http://web.resource.org/cc/SourceCode"/>
</cc:License>
</rdf:RDF>
</metadata>
<defs>
<radialGradient id="a" cx="858.04" cy="579.93" r="300" gradientTransform="matrix(1.215 1.5316e-24 1.4647e-23 1.2667 -839.19 -490.49)" gradientUnits="userSpaceOnUse">
<stop stop-color="#fff" stop-opacity=".31373" offset="0"/>
<stop stop-color="#fff" stop-opacity=".25098" offset=".19"/>
<stop stop-color="#6b6b6b" stop-opacity=".12549" offset=".6"/>
<stop stop-opacity=".12549" offset="1"/>
</radialGradient>
</defs>
<sodipodi:namedview bordercolor="#666666" borderopacity="1.0" gridtolerance="10.0" guidetolerance="10.0" objecttolerance="10.0" pagecolor="#ffffff" showgrid="false" showguides="true"/>
<desc>Coat of Arms of Canton of Freiburg (Fribourg)</desc>
<g stroke="#000">
<path d="m1.5002 1.5v458.87c0 166.31 134.31 301.13 300 301.13 165.69 0 300-134.82 300-301.13v-458.87h-600z" fill="#e20909" stroke-width="3.3"/>
<path d="m1.5002 1.5v458.87c0 166.31 134.31 301.13 300 301.13 165.69 0 300-134.82 300-301.13v-458.87h-600z" fill="none"/>
<path d="m1.5002 1.5v458.87c0 166.31 134.31 301.13 300 301.13 165.69 0 300-134.82 300-301.13v-458.87h-600z" fill="none" stroke-width="3.3"/>
<path d="m1.5002 1.5v458.87c0 166.31 134.31 301.13 300 301.13 165.69 0 300-134.82 300-301.13v-458.87h-600z" fill="none" stroke-width="3.3"/>
<path d="m302.66 1.5-301.16 382.84v76.031c0 0.64965-0.0040928 1.2888 0 1.9375 0.16068 25.467 3.4744 50.187 9.5625 73.781l290.44-371.75 290.44 371.75c6.0881-23.594 9.4018-48.314 9.5625-73.781 0.00409-0.64868 0-1.2878 0-1.9375v-76.031l-298.84-382.84z" fill="#fff" fill-rule="evenodd" stroke-width="3"/>
<path d="m1.5 384.34v76.031c0 166.31 134.31 301.12 300 301.12s300-134.81 300-301.12v-76.031h-600z" fill="#fff" fill-rule="evenodd" stroke-width="3"/>
<path d="m160.23 597.53-13.631 7.3301v-104.81c-7.1158 4.9726-14.875 8.4018-23.276 10.288l-2.572-4.7581c17.489-5.3153 30.049-16.118 37.679-32.407l1.8004 1.286v123.07m101.98-61.727c10.031 4.9725 17.061 9.7735 21.09 14.403 4.0293 4.5438 6.044 9.945 6.0441 16.203-9e-5 10.459-3.858 19.247-11.574 26.363-7.6302 7.03-17.532 10.545-29.706 10.545-11.402 0-20.662-3.1721-27.777-9.5163-7.1158-6.3442-10.674-14.146-10.674-23.405 0-13.46 8.1446-24.434 24.434-32.921-7.7159-5.3153-12.817-9.8591-15.303-13.631-2.4005-3.8579-3.6008-8.2731-3.6008-13.246-2e-5 -9.6876 3.8151-17.789 11.445-24.305 7.7159-6.6013 17.146-9.902 28.292-9.9021 9.4305 1.3e-4 17.146 2.4864 23.148 7.4587 6.0012 4.9726 9.0018 11.317 9.0019 19.033-8e-5 6.8587-1.8005 12.774-5.4011 17.747-3.6008 4.9726-10.074 10.031-19.418 15.175m-6.0441-3.0864c13.546-5.1439 20.318-13.503 20.319-25.077-8e-5 -7.4586-2.4863-13.331-7.4587-17.618-4.8868-4.3722-11.531-6.5584-19.933-6.5585-7.2873 1.1e-4 -13.031 1.8434-17.232 5.5297-4.1152 3.6009-6.1728 8.4019-6.1727 14.403-2e-5 12.003 10.159 21.776 30.478 29.32m-16.332 8.1017c-12.431 5.0583-18.647 13.674-18.647 25.848-2e-5 8.7447 2.9149 16.118 8.7447 22.119 5.8298 6.0013 13.331 9.0019 22.505 9.0019 7.8016 0 14.146-2.3148 19.033-6.9443 4.8867-4.7153 7.33-10.416 7.3301-17.104-8e-5 -4.9724-1.4147-9.3019-4.2438-12.988-2.7435-3.6864-9.0448-7.8445-18.904-12.474l-15.818-7.4587m112.78 56.712-13.631 7.3301v-104.81c-7.1158 4.9726-14.875 8.4018-23.276 10.288l-2.572-4.7581c17.489-5.3153 30.049-16.118 37.679-32.407l1.8004 1.286v123.07m129.63-24.562c-1.8005 9.5163-6.0871 17.018-12.86 22.505-6.7729 5.4011-13.803 8.1017-21.09 8.1017-7.373-1e-5 -13.889-2.4862-19.547-7.4587-3.2579-2.9149-6.5586-4.3723-9.9021-4.3724-6.6014 1e-5 -10.588 3.7722-11.96 11.317h-3.6008c0.42865-12.688 4.8867-24.005 13.374-33.95 8.5732-10.031 16.589-17.489 24.048-22.376 7.4586-4.9724 12.817-10.374 16.075-16.203 3.2578-5.8297 4.8867-11.531 4.8867-17.104-7e-5 -7.6301-2.572-14.446-7.7159-20.447-5.0582-6.0012-11.317-9.0018-18.775-9.0019-7.2016 1.1e-4 -13.246 2.3149-18.132 6.9443-4.801 4.5439-7.2015 10.374-7.2015 17.489-2e-5 5.144 1.286 9.302 3.858 12.474 2.6577 3.1722 5.9584 4.7582 9.9021 4.7581 3.515 8e-5 6.387-1.1573 8.6161-3.4722 2.3147-2.3147 3.4721-4.9724 3.4722-7.9731v-2.3148l2.8292-1.0288c1.2859 2.2291 1.9289 4.9297 1.929 8.1017-5e-5 5.3155-1.7576 9.5592-5.2725 12.731-3.4293 3.0864-7.9303 4.6296-13.503 4.6295-5.7441 6e-5 -10.459-2.1004-14.146-6.3013-3.6865-4.2008-5.5297-9.6448-5.5297-16.332-1e-5 -10.288 3.8151-18.99 11.445-26.105 7.6301-7.1157 17.061-10.674 28.292-10.674 9.6877 1.2e-4 17.961 3.1293 24.819 9.3877 6.9442 6.1728 10.416 13.632 10.416 22.376-8e-5 14.403-9.8593 28.077-29.578 41.023-19.718 12.946-31.464 25.634-35.236 38.065 4.5438-3.515 9.8163-5.2725 15.818-5.2725 4.3723 2e-5 9.9878 1.1574 16.846 3.4722 6.9442 2.229 11.445 3.3436 13.503 3.3436 4.458 1e-5 8.1874-1.2002 11.188-3.6008 3.0006-2.4862 6.1298-7.2444 9.3877-14.274l3.3436 1.5432" stroke-width="5.9"/>
</g>
<g sodipodi:insensitive="true">
<path d="m1.5 1.5v458.87c0 166.31 134.31 301.13 300 301.13 165.69 0 300-134.82 300-301.13v-458.87h-600z" fill="url(#a)"/>
<path d="m1.5 1.5v458.87c0 166.31 134.31 301.13 300 301.13 165.69 0 300-134.82 300-301.13v-458.87h-600z" fill="none" stroke="#000" stroke-width="3"/>
</g>
</svg>
